X:651
T: Dongting sijige
N: C2175
O: China, Hunan Yueyang
S: I, 496, 1)]
R: Xiaodiao]
M: 2/4
L: 1/16
K: G
d2Bed4 | dBedB4 | ABdeBAGE | d2BdA4 |
ABdeBAGE | A2BdA2GE | E2DEAGE2 | D8 |
G3AAGE2 | GEA2G4

